packages/ui-kit/src/icons/svg/custom-application.svg

<?xml version="1.0" encoding="UTF-8"?>
<svg width="80px" height="80px" viewBox="0 0 80 80" version="1.1" xmlns="http://www.w3.org/2000/svg" xmlns:xlink="http://www.w3.org/1999/xlink">
    <title>custom_application_80x80</title>
    <g id="Color-Scheme---Products-/-Solution" stroke="none" stroke-width="1" fill="none" fill-rule="evenodd">
        <g id="Icon-final" transform="translate(-165.000000, -17.000000)" fill="#044E7C" fill-rule="nonzero">
            <g id="custom_application_80x80" transform="translate(165.000000, 17.000000)">
                <path d="M22.6133472,11.8831062 L22.6133472,31.7831062 C22.6133472,32.2310909 22.8530822,32.6448224 23.2417498,32.8675953 L39.6417498,42.2675953 C40.475077,42.745234 41.5133472,42.1436128 41.5133472,41.1831062 L41.5133472,21.2831062 C41.5133472,20.8351215 41.2736122,20.42139 40.8849446,20.1986171 L24.4849446,10.7986171 C23.6516174,10.3209783 22.6133472,10.9225996 22.6133472,11.8831062 Z M25.113,14.04 L39.013,22.007 L39.013,39.026 L25.113,31.059 L25.113,14.04 Z" id="Path"></path>
                <path d="M56.0417498,10.7986171 C56.8388453,10.3417452 57.8234502,10.8723249 57.9075613,11.7599172 L57.9133472,11.8831062 L57.9133472,31.7831062 C57.9133472,32.1862924 57.7191619,32.5617336 57.3969861,32.7951914 L57.2849446,32.8675953 L40.8849446,42.2675953 L39.6417498,40.0986171 L55.413,31.058 L55.413,14.039 L40.8849446,22.3675953 L39.6417498,20.1986171 L56.0417498,10.7986171 Z" id="Path"></path>
                <path d="M39.6467469,1.49576808 C39.986711,1.3029836 40.3944849,1.2815631 40.7495178,1.43150659 L40.8799475,1.49576808 L57.2799475,10.7957681 L56.0467469,12.9704443 L40.263,4.02 L24.4799475,12.9704443 L23.2467469,10.7957681 L39.6467469,1.49576808 Z" id="Path"></path>
                <path d="M2.7133472,48.1831062 L2.7133472,68.0831062 C2.7133472,68.5331475 2.95526932,68.9484478 3.34674694,69.1704443 L19.7467469,78.4704443 C20.5800429,78.942984 21.6133472,78.3410602 21.6133472,77.3831062 L21.6133472,57.4831062 C21.6133472,57.0330649 21.3714251,56.6177645 20.9799475,56.3957681 L4.57994746,47.0957681 C3.7466515,46.6232283 2.7133472,47.2251521 2.7133472,48.1831062 Z M5.213,50.329 L19.113,58.211 L19.113,75.237 L5.213,67.355 L5.213,50.329 Z" id="Path"></path>
                <path d="M36.1467469,47.0957681 C36.9438126,46.6437735 37.9238727,47.174842 38.0075886,48.0602338 L38.0133472,48.1831062 L38.0133472,68.0831062 C38.0133472,68.4881433 37.8173903,68.8650403 37.4928117,69.0982048 L37.3799475,69.1704443 L20.9799475,78.4704443 L19.7467469,76.2957681 L35.513,67.354 L35.513,50.328 L20.9799475,58.5704443 L19.7467469,56.3957681 L36.1467469,47.0957681 Z" id="Path"></path>
                <path d="M19.7417498,37.6986171 C20.0839882,37.502456 20.4958682,37.4806603 20.8535826,37.63323 L20.9849446,37.6986171 L37.3849446,47.0986171 L36.1417498,49.2675953 L20.363,40.223 L4.58494462,49.2675953 L3.34174978,47.0986171 L19.7417498,37.6986171 Z" id="Path"></path>
                <path d="M42.5133472,48.1831062 L42.5133472,68.0831062 C42.5133472,68.5331475 42.7552693,68.9484478 43.1467469,69.1704443 L59.5467469,78.4704443 C60.3800429,78.942984 61.4133472,78.3410602 61.4133472,77.3831062 L61.4133472,57.4831062 C61.4133472,57.0330649 61.1714251,56.6177645 60.7799475,56.3957681 L44.3799475,47.0957681 C43.5466515,46.6232283 42.5133472,47.2251521 42.5133472,48.1831062 Z M45.013,50.329 L58.913,58.211 L58.913,75.237 L45.013,67.355 L45.013,50.329 Z" id="Path"></path>
                <path d="M75.9467469,47.0957681 C76.7438126,46.6437735 77.7238727,47.174842 77.8075886,48.0602338 L77.8133472,48.1831062 L77.8133472,68.0831062 C77.8133472,68.4881433 77.6173903,68.8650403 77.2928117,69.0982048 L77.1799475,69.1704443 L60.7799475,78.4704443 L59.5467469,76.2957681 L75.313,67.354 L75.313,50.328 L60.7799475,58.5704443 L59.5467469,56.3957681 L75.9467469,47.0957681 Z" id="Path"></path>
                <path d="M59.5417498,37.6986171 C59.8839882,37.502456 60.2958682,37.4806603 60.6535826,37.63323 L60.7849446,37.6986171 L77.1849446,47.0986171 L75.9417498,49.2675953 L60.163,40.223 L44.3849446,49.2675953 L43.1417498,47.0986171 L59.5417498,37.6986171 Z" id="Path"></path>
                <path d="M62.4633472,29.3331062 C61.1102496,29.3331062 60.0133472,30.4300085 60.0133472,31.7831062 C60.0133472,33.1362038 61.1102496,34.2331062 62.4633472,34.2331062 C63.8164448,34.2331062 64.9133472,33.1362038 64.9133472,31.7831062 C64.9133472,30.4300085 63.8164448,29.3331062 62.4633472,29.3331062 Z" id="Oval"></path>
                <path d="M18.0633472,29.3331062 C16.7102496,29.3331062 15.6133472,30.4300085 15.6133472,31.7831062 C15.6133472,33.1362038 16.7102496,34.2331062 18.0633472,34.2331062 C19.4164448,34.2331062 20.5133472,33.1362038 20.5133472,31.7831062 C20.5133472,30.4300085 19.4164448,29.3331062 18.0633472,29.3331062 Z" id="Oval"></path>
                <path d="M40.2633472,70.3331062 C38.9102496,70.3331062 37.8133472,71.4300085 37.8133472,72.7831062 C37.8133472,74.1362038 38.9102496,75.2331062 40.2633472,75.2331062 C41.6164448,75.2331062 42.7133472,74.1362038 42.7133472,72.7831062 C42.7133472,71.4300085 41.6164448,70.3331062 40.2633472,70.3331062 Z" id="Oval"></path>
            </g>
        </g>
    </g>
</svg>

<svg viewBox="0 0 80 80" width="80px" height="80px" xmlns="http://www.w3.org/2000/svg">
  <g fill="#044E7C" fill-rule="nonzero">
    <path d="M22.613 11.883v19.9c0 .448.24.862.629 1.085l16.4 9.4a1.25 1.25 0 001.871-1.085v-19.9c0-.448-.24-.862-.628-1.084l-16.4-9.4a1.25 1.25 0 00-1.872 1.084zm2.5 2.157l13.9 7.967v17.019l-13.9-7.967V14.04z"/>
    <path d="M56.042 10.799a1.25 1.25 0 011.866.96l.005.124v19.9c0 .403-.194.779-.516 1.012l-.112.073-16.4 9.4-1.243-2.17 15.771-9.04V14.039l-14.528 8.329-1.243-2.17 16.4-9.4z"/>
    <path d="M39.647 1.496a1.25 1.25 0 011.103-.064l.13.064 16.4 9.3-1.233 2.174-15.784-8.95-15.783 8.95-1.233-2.174 16.4-9.3zM2.713 48.183v19.9c0 .45.242.865.634 1.087l16.4 9.3a1.25 1.25 0 001.866-1.087v-19.9c0-.45-.242-.865-.633-1.087l-16.4-9.3a1.25 1.25 0 00-1.867 1.087zm2.5 2.146l13.9 7.882v17.026l-13.9-7.882V50.329z"/>
    <path d="M36.147 47.096a1.25 1.25 0 011.86.964l.006.123v19.9c0 .405-.196.782-.52 1.015l-.113.072-16.4 9.3-1.233-2.174 15.766-8.942V50.328L20.98 58.57l-1.233-2.174 16.4-9.3z"/>
    <path d="M19.742 37.699a1.25 1.25 0 011.112-.066l.13.066 16.4 9.4-1.242 2.169-15.779-9.045-15.778 9.045-1.243-2.17 16.4-9.4zM42.513 48.183v19.9c0 .45.242.865.634 1.087l16.4 9.3a1.25 1.25 0 001.866-1.087v-19.9c0-.45-.242-.865-.633-1.087l-16.4-9.3a1.25 1.25 0 00-1.867 1.087zm2.5 2.146l13.9 7.882v17.026l-13.9-7.882V50.329z"/>
    <path d="M75.947 47.096a1.25 1.25 0 011.86.964l.006.123v19.9c0 .405-.196.782-.52 1.015l-.113.072-16.4 9.3-1.233-2.174 15.766-8.942V50.328L60.78 58.57l-1.233-2.174 16.4-9.3z"/>
    <path d="M59.542 37.699a1.25 1.25 0 011.112-.066l.13.066 16.4 9.4-1.242 2.169-15.779-9.045-15.778 9.045-1.243-2.17 16.4-9.4zM62.463 29.333a2.45 2.45 0 100 4.9 2.45 2.45 0 000-4.9zM18.063 29.333a2.45 2.45 0 100 4.9 2.45 2.45 0 000-4.9zM40.263 70.333a2.45 2.45 0 100 4.9 2.45 2.45 0 000-4.9z"/>
  </g>
</svg>
